X:1
T:中華民國國歌 (三民主义)
T:中華民國國歌 (三民主義)
T:National Anthem of the Republic of China (Taiwan) (San Min Zhu Yi - The Three Principles of the People) 
T:Music: Cheng Maoyun 
T:Lyrics: Sun Yat-sen, Du Tingxiu (English) 
T:Public Domain
T:Public Domain
C:Cheng Maoyun
Z:Sun Yat-sen
Z:Public Domain
%%score 1 { ( 2 4 ) | 3 }
L:1/8
M:4/4
K:C
V:1 treble nm="Violin"
V:2 treble nm="Piano"
V:4 treble 
V:3 bass 
V:1
!mf! C2 | C6 E2 | !breath!E6 G2 | G6 E2 | !breath!D6!f! E2 | c6 (AG) | !breath!A6 E2 | A6 (G^F) | %8
w: 三|民 主|義 吾|黨 所|宗 以|建 民 *|國 以|進 大 *|
w: sān|mín zhǔ|yì wú|dǎng suǒ|zōng yǐ|jiàn mín *|guó yǐ|jìn dà *|
w: San|Min Chu|i, Our|aim shall|be: To|found a free|land, World|peace, be our|
 !fermata!G4 z2!p! .G2 | .F2 .A2 .G2 .c2 | .B2 .d2 !breath!.c2!mf! A2 | A2 c2 A2 G2 | %12
w: 同 資|爾 多 士 為|民 前 鋒 夙|夜 厞 懈 主|
w: tóng zī|ěr duō shì wèi|mín qián fēng sù|yè fěi xiè zhǔ|
w: stand. Lead|on com- rades, van-|guards ye are. Hold|fast your aim, By|
 E2 D2 !breath!C2!f! G2 | G6 (AG) | !breath!G6 c2 | c6 (AG) | !breath!G6!ff! G2 | e6 (d>e) | %18
w: 義 是 從 矢|勤 矢 *|勇 必|信 必 *|忠 一|心 一 *|
w: yì shì cóng shǐ|qín shǐ *|yǒng bì|xìn bì *|zhōng yì|xīn yì *|
w: sun and star. Be|earnest and *|brave, Your|country to *|save, One|heart, one *|
 !breath!d6 G2 | d6 (d>e) | c6 |] %21
w: 德 貫|徹 始 *|中！|
w: dé guàn|chè shǐ *|zhōng|
w: soul, one|mind one *|goal!|
V:2
!mf! [A,C]2 | [G,C]6 [CE]2 | [CE]6 [B,G]2 | [DG]6 [CE]2 | [B,D]6!f! [CE]2 | [Ec]6 F2 | [FA]6 E2 | %7
 [FA]6 D2 | !fermata![DG]4 z2!p! .[EG]2 | .[DF]2 .[FA]2 .[EG]2 .[Gc]2 | %10
 .[FB]2 .[Dd]2 .[Gc]2!mf! [FA]2 | [FA]2 [Fc]2 [FA]2 [DG]2 | [CE]2 [B,D]2 [G,C]2!f! [EG]2 | %13
 [EG]6 E2 | [EG]6 [Gc]2 | [Ac]6 F2 | [EG]6!ff! [EG]2 | [Ge]6 ([Fd]>[Ge]) | [Fd]6 [DG]2 | %19
 [Fd]6 ([Fd]>[Ge]) | [Ec]6 |] %21
V:3
 [C,E,]2 | [C,E,]6 [C,G,]2 | [C,G,]6 [G,,B,]2 | [B,,G,]6 [C,G,]2 | [G,,G,]6 [C,E,]2 | %5
 [C,G,]6 [F,,C]2 | [F,,C]6 [C,C]2 | [A,,C]6 [D,C]2 | !fermata![G,B,]4 z2 .[C,C]2 | %9
 .[F,B,]2 .[F,C]2 .[C,C]2 .[E,G,]2 | .[D,D]2 .[F,B,]2 .[E,C]2 [F,C]2 | %11
 [F,C]2 [A,C]2 [F,C]2 [G,B,]2 | [C,G,]2 [G,,F,]2 [C,E,]2 [C,C]2 | [C,C]6 [C,C]2 | [C,C]6 [C,C]2 | %15
 [F,C]6 [F,C]2 | [G,B,]6 [C,C]2 | [C,C]6 [C,C]2 | [F,B,]6 [G,B,]2 | [G,B,]6 [G,B,]2 | [C,C]6 |] %21
V:4
 x2 | x8 | x8 | x8 | x8 | x6 (AG) | x8 | x6 (G^F) | x8 | x8 | x8 | x8 | x8 | x6 (AG) | x8 | %15
 x6 (AG) | x8 | x8 | x8 | x8 | x6 |] %21

